packages/Snapp/src/CreditVentureIcon/index.svg

<?xml version="1.0" encoding="UTF-8"?>
<svg width="24px" height="24px" viewBox="0 0 24 24" version="1.1" xmlns="http://www.w3.org/2000/svg" xmlns:xlink="http://www.w3.org/1999/xlink">
    <title>Icons/24/Credit venture</title>
    <g id="Icons/24/Credit-venture" stroke="none" stroke-width="1" fill="none" fill-rule="evenodd">
        <path d="M18.8579614,2 C20.558881,2 21.9425799,3.35818344 21.9837108,5.04920308 L21.9846522,5.04878995 L21.9852909,14.2520453 C21.45126,13.5891669 20.7665728,13.052764 19.9832388,12.6948459 L19.984,8.109 L19.6779113,8.24429677 L19.0826084,8.24543546 C19.0084116,8.25070301 18.9334993,8.25338169 18.8579614,8.25338169 L4.8763624,8.25251303 C4.42302361,8.31080043 4.06472661,8.67265646 4.01187684,9.12767565 L4.00514911,9.24429677 L4.00514911,11.118 L6.59328327,11.1183065 C8.33752752,11.1183065 9.75151686,12.5322958 9.75151686,14.2765401 C9.75151686,16.0207843 8.33752752,17.4347736 6.59328327,17.4347736 L4.00514911,17.434 L4.00514911,19.010877 C4.00514911,19.5237128 4.3911893,19.9463841 4.88852799,20.0041492 L5.00514911,20.010877 L12.7073603,20.0104307 C13.0712048,20.7953478 13.6147016,21.4800279 14.2850629,22.0116831 L5.00514911,22.010877 C3.34829486,22.010877 2.00514911,20.6677312 2.00514911,19.010877 L2.00514911,9.24429677 C2.00514911,7.63190613 3.27717242,6.31661244 4.87245598,6.2471788 L4.8725896,5 C4.8725896,3.34314575 6.21573535,2 7.8725896,2 L18.8579614,2 Z M17.6852909,13.4 C20.0601153,13.4 21.9852909,15.3251756 21.9852909,17.7 C21.9852909,20.0748244 20.0601153,22 17.6852909,22 C15.3104665,22 13.3852909,20.0748244 13.3852909,17.7 C13.3852909,15.3251756 15.3104665,13.4 17.6852909,13.4 Z M17.73382,14.6704847 C17.4355862,14.6704847 17.1881732,14.8880743 17.141673,15.1731616 L17.13382,15.2704847 L17.13382,17.9409101 L17.141673,18.0382333 C17.1574498,18.1349593 17.1963547,18.2239154 17.2525256,18.2992393 L17.3142346,18.3698021 L17.3767645,18.4444775 L18.6899407,19.7656591 C18.9235422,20.0006846 19.3034394,20.001839 19.5384649,19.7682376 C19.7473765,19.5605918 19.7715011,19.2373543 19.6102171,19.0030214 L19.5410434,18.9197133 L18.33382,17.7054847 L18.33382,15.2704847 L18.325967,15.1731616 C18.2794667,14.8880743 18.0320537,14.6704847 17.73382,14.6704847 Z M4.00514911,12.617 L4.00514911,15.933 L6.59328327,15.9347736 C7.50910039,15.9347736 8.25151686,15.1923572 8.25151686,14.2765401 C8.25151686,13.4089238 7.58519294,12.6969359 6.73636201,12.6243932 L6.59328327,12.6183065 L4.00514911,12.617 Z M6.48150854,13.2765401 C7.03379329,13.2765401 7.48150854,13.7242553 7.48150854,14.2765401 C7.48150854,14.8288248 7.03379329,15.2765401 6.48150854,15.2765401 C5.92922379,15.2765401 5.48150854,14.8288248 5.48150854,14.2765401 C5.48150854,13.7242553 5.92922379,13.2765401 6.48150854,13.2765401 Z M18.8579614,4 L7.8725896,4 C7.35975376,4 6.93708244,4.38604019 6.87931733,4.88337887 L6.8725896,5 L6.87114911,6.244 L18.9939185,6.24526244 C19.5118818,6.1829644 19.921717,5.7692346 19.978041,5.24945622 L19.9846522,5.12669084 C19.9846522,4.54592028 19.5452319,4.06778186 18.9807268,4.00661127 L18.8579614,4 Z" id="Combined-Shape" fill="#404040"></path>
    </g>
</svg>

<svg viewBox="0 0 24 24" xmlns="http://www.w3.org/2000/svg" fill="currentColor" focusable="false">
  <path d="M18.858 2c1.7 0 3.085 1.358 3.126 3.05v-.001l.001 9.203a5.52 5.52 0 00-2.002-1.557l.001-4.586-.306.135-.595.001c-.075.006-.15.008-.225.008H4.876a1 1 0 00-.864.875l-.007.116v1.874h2.588a3.158 3.158 0 110 6.317l-2.588-.001v1.577a1 1 0 00.884.993l.116.007h7.702a5.52 5.52 0 001.578 2h-9.28a3 3 0 01-3-3V9.244a3 3 0 012.867-2.997V5a3 3 0 013-3h10.986zm-1.173 11.4a4.3 4.3 0 110 8.6 4.3 4.3 0 010-8.6zm.049 1.27a.6.6 0 00-.592.503l-.008.097v2.67l.008.098a.597.597 0 00.11.261l.062.07.063.075 1.313 1.322a.6.6 0 00.92-.763l-.069-.083-1.207-1.215V15.27l-.008-.097a.6.6 0 00-.592-.503zM4.005 12.617v3.316l2.588.002a1.658 1.658 0 00.143-3.31l-.143-.007-2.588-.001zm2.477.66a1 1 0 110 2 1 1 0 010-2zM18.858 4H7.873a1 1 0 00-.994.883L6.873 5 6.87 6.244l12.123.001c.518-.062.928-.476.984-.996l.007-.122c0-.581-.44-1.06-1.004-1.12L18.858 4z" fill="none"/>
</svg>
